img/cart-icon.svg

<svg width="12" height="13" viewBox="0 0 12 13" fill="none" xmlns="http://www.w3.org/2000/svg">
<path d="M5.53025 0C4.15756 0 3.03082 1.12675 3.03082 2.49943V2.99932H0.562373L0.53138 3.46822L0.031493 12.4662L0 12.9971H11.06L11.029 12.4657L10.5291 3.46772L10.4976 2.99932H8.02969V2.49943C8.02969 1.12675 6.90294 0 5.53025 0ZM5.53025 0.999774C5.92798 0.999774 6.30943 1.15777 6.59067 1.43901C6.87191 1.72026 7.02991 2.1017 7.02991 2.49943V2.99932H4.03059V2.49943C4.03059 2.1017 4.18859 1.72026 4.46983 1.43901C4.75107 1.15777 5.13251 0.999774 5.53025 0.999774ZM1.49966 3.9991H3.03082V5.49876H4.03059V3.9991H7.02991V5.49876H8.02969V3.9991H9.56084L9.99824 11.9973H1.06276L1.49966 3.9991Z" fill="#111111"/>
</svg>

<svg width="12" height="13" fill="none" xmlns="http://www.w3.org/2000/svg"><path d="M5.53 0a2.51 2.51 0 0 0-2.5 2.5V3H.563l-.03.468-.5 8.998-.032.531h11.06l-.031-.531-.5-8.998-.031-.469H8.03v-.5A2.51 2.51 0 0 0 5.53 0Zm0 1a1.5 1.5 0 0 1 1.5 1.5V3h-3v-.5A1.5 1.5 0 0 1 5.53 1ZM1.5 4h1.53v1.499h1v-1.5h3v1.5h1v-1.5h1.53l.438 7.998H1.063L1.5 4Z" fill="#111"/></svg>
